FINK
CUT[ES LEUCHTET SCHON WIEDER]
REG[Europa, Mitteleuropa, Deutschland]
KEY[F0168  08  C 3/4]
MEL[-3-5  -5_-3-512  3_-5_
    -6-7  1_2_1-6  -5__
    -3-5  -5_1_-7-6  -5_-3-5
    1-3  -5-6-5_-4-2  -1__ //] >>
FCT[Liebes - Lied, Verzeihung]
